packages/icons/svg/24/Groups.svg

<svg width="24" height="24" viewBox="0 0 24 24" fill="none" xmlns="http://www.w3.org/2000/svg">
<path fill-rule="evenodd" clip-rule="evenodd" d="M3 7C3 5.34315 4.34315 4 6 4H18C19.6569 4 21 5.34315 21 7V17C21 18.6569 19.6569 20 18 20H6C4.34315 20 3 18.6569 3 17V7ZM8.5 13.5C9.74264 13.5 10.75 12.4926 10.75 11.25C10.75 10.0074 9.74264 9 8.5 9C7.25736 9 6.25 10.0074 6.25 11.25C6.25 12.4926 7.25736 13.5 8.5 13.5ZM12 17C12 15.067 10.433 13.5 8.5 13.5C6.567 13.5 5 15.067 5 17C5 17.5523 5.44772 18 6 18H12H18C18.5523 18 19 17.5523 19 17C19 15.067 17.433 13.5 15.5 13.5C16.7426 13.5 17.75 12.4926 17.75 11.25C17.75 10.0074 16.7426 9 15.5 9C14.2574 9 13.25 10.0074 13.25 11.25C13.25 12.4926 14.2574 13.5 15.5 13.5C13.567 13.5 12 15.067 12 17Z" fill="#858585"/>
</svg>

<svg width="24" height="24" fill="none" xmlns="http://www.w3.org/2000/svg" viewBox="0 0 24 24"><path fill-rule="evenodd" clip-rule="evenodd" d="M3 7a3 3 0 013-3h12a3 3 0 013 3v10a3 3 0 01-3 3H6a3 3 0 01-3-3V7zm5.5 6.5a2.25 2.25 0 100-4.5 2.25 2.25 0 000 4.5zM12 17a3.5 3.5 0 10-7 0 1 1 0 001 1h12a1 1 0 001-1 3.5 3.5 0 00-3.5-3.5 2.25 2.25 0 100-4.5 2.25 2.25 0 000 4.5A3.5 3.5 0 0012 17z" fill="currentColor"></path></svg>
